svgs/duotone/cloud-arrow-down.svg

<svg xmlns="http://www.w3.org/2000/svg" viewBox="0 0 640 512"><!--! Font Awesome Pro 6.4.0 by @fontawesome - https://fontawesome.com License - https://fontawesome.com/license (Commercial License) Copyright 2023 Fonticons, Inc. --><defs><style>.fa-secondary{opacity:.4}</style></defs><path class="fa-primary" d="M223 279c-9.4 9.4-9.4 24.6 0 33.9l80 80c9.4 9.4 24.6 9.4 33.9 0l80-80c9.4-9.4 9.4-24.6 0-33.9s-24.6-9.4-33.9 0l-39 39L344 184c0-13.3-10.7-24-24-24s-24 10.7-24 24l0 134.1-39-39c-9.4-9.4-24.6-9.4-33.9 0z"/><path class="fa-secondary" d="M144 480C64.5 480 0 415.5 0 336c0-62.8 40.2-116.2 96.2-135.9c-.1-2.7-.2-5.4-.2-8.1c0-88.4 71.6-160 160-160c59.3 0 111 32.2 138.7 80.2C409.9 102 428.3 96 448 96c53 0 96 43 96 96c0 12.2-2.3 23.8-6.4 34.6C596 238.4 640 290.1 640 352c0 70.7-57.3 128-128 128H144zm79-167l80 80c9.4 9.4 24.6 9.4 33.9 0l80-80c9.4-9.4 9.4-24.6 0-33.9s-24.6-9.4-33.9 0l-39 39V184c0-13.3-10.7-24-24-24s-24 10.7-24 24V318.1l-39-39c-9.4-9.4-24.6-9.4-33.9 0s-9.4 24.6 0 33.9z"/></svg>

<svg xmlns="http://www.w3.org/2000/svg" viewBox="0 0 640 512"><!--! Font Awesome Pro 6.3.0 by @fontawesome - https://fontawesome.com License - https://fontawesome.com/license (Commercial License) Copyright 2023 Fonticons, Inc. --><defs><style>.fa-secondary{opacity:.4}</style></defs><path class="fa-primary" d="M256.1 279L296 318.1V184C296 170.7 306.7 160 320 160C333.3 160 344 170.7 344 184V318.1L383 279C392.4 269.7 407.6 269.7 416.1 279C426.3 288.4 426.3 303.6 416.1 312.1L336.1 392.1C327.6 402.3 312.4 402.3 303 392.1L223 312.1C213.7 303.6 213.7 288.4 223 279C232.4 269.7 247.6 269.7 256.1 279V279z"/><path class="fa-secondary" d="M144 480C64.47 480 0 415.5 0 336C0 273.2 40.17 219.8 96.2 200.1C96.07 197.4 96 194.7 96 192C96 103.6 167.6 32 256 32C315.3 32 367 64.25 394.7 112.2C409.9 101.1 428.3 96 448 96C501 96 544 138.1 544 192C544 204.2 541.7 215.8 537.6 226.6C596 238.4 640 290.1 640 352C640 422.7 582.7 480 512 480H144zM303 392.1C312.4 402.3 327.6 402.3 336.1 392.1L416.1 312.1C426.3 303.6 426.3 288.4 416.1 279C407.6 269.7 392.4 269.7 383 279L344 318.1V184C344 170.7 333.3 160 320 160C306.7 160 296 170.7 296 184V318.1L256.1 279C247.6 269.7 232.4 269.7 223 279C213.7 288.4 213.7 303.6 223 312.1L303 392.1z"/></svg>
